dist/assets/images/icons/coat-hanger.svg

<svg width="50" height="36" viewBox="0 0 50 36" fill="none" xmlns="http://www.w3.org/2000/svg">
<g clip-path="url(#clip0_827_24519)">
<path d="M2.19511 27.0509C0.0950126 28.2996 -0.283963 30.9581 0.171489 32.5711C0.613289 34.1353 2.17058 36 4.97294 36H4.97923C4.97923 36 41.1125 36 44.7562 36C47.8939 36 49.3247 34.1873 49.7664 32.6231C50.2219 31.0102 50.2219 28.5127 47.7927 27.0038L26.7277 14.4742V12.3409C26.7277 9.9214 24.1087 8.87109 24.1087 8.87109C22.4135 8.03855 22.5653 6.24363 22.5653 6.24363C22.5653 4.13655 24.4377 3.4601 25.2725 3.4601C26.6743 3.4601 28.0491 4.24351 28.1942 6.03553C28.422 8.84518 31.5809 8.13207 31.5809 5.87472C31.5809 3.74162 29.6501 0 25.2473 0C20.4879 0 19.1209 4.68982 19.1209 6.17269C19.1209 7.29115 19.2963 8.32395 19.9812 9.50261C21.1451 11.5057 23.4744 11.8206 23.4744 13.1473V14.4742L2.19511 27.0509Z" fill="#101112"/>
<path d="M24.9683 17.6904L45.6063 29.8455C46.8863 30.7592 46.193 32.4791 44.8063 32.482H5.03534C3.74098 32.5329 2.94101 30.7055 4.22097 29.8993L24.9683 17.6904Z" fill="#EFEFEF"/>
</g>
<defs>
<clipPath id="clip0_827_24519">
<rect width="50" height="36" fill="white"/>
</clipPath>
</defs>
</svg>

<svg width="50" height="36" fill="none" xmlns="http://www.w3.org/2000/svg"><g clip-path="url(#clip0_827_24519)"><path d="M2.195 27.05C.095 28.3-.284 30.959.171 32.572.613 34.135 2.171 36 4.973 36h39.783c3.138 0 4.569-1.813 5.01-3.377.456-1.613.456-4.11-1.973-5.62L26.728 14.475v-2.133c0-2.42-2.62-3.47-2.62-3.47-1.695-.832-1.543-2.627-1.543-2.627 0-2.107 1.873-2.784 2.707-2.784 1.402 0 2.777.784 2.922 2.576.228 2.81 3.387 2.096 3.387-.161C31.58 3.742 29.65 0 25.247 0c-4.76 0-6.126 4.69-6.126 6.173 0 1.118.175 2.151.86 3.33 1.164 2.003 3.493 2.318 3.493 3.644v1.327L2.195 27.051z" fill="#101112"/><path d="M24.968 17.69l20.638 12.155c1.28.914.587 2.634-.8 2.637H5.036c-1.295.05-2.095-1.776-.815-2.583L24.968 17.69z" fill="#EFEFEF"/></g><defs><clipPath id="clip0_827_24519"><path fill="#fff" d="M0 0h50v36H0z"/></clipPath></defs></svg>
